packages/Snapp/src/SwapIcon/index.svg

<?xml version="1.0" encoding="UTF-8"?>
<svg width="24px" height="24px" viewBox="0 0 24 24" version="1.1" xmlns="http://www.w3.org/2000/svg" xmlns:xlink="http://www.w3.org/1999/xlink">
    <title>Icons/24/Swap</title>
    <g id="Icons/24/Swap" stroke="none" stroke-width="1" fill="none" fill-rule="evenodd">
        <rect id="Container" fill-opacity="0" fill="#D8D8D8" fill-rule="nonzero" x="0" y="0" width="24" height="24"></rect>
        <path d="M8,9 C8.55228475,9 9,9.44771525 9,10 L9,10 L8.999,18.586 L11.2928932,16.2928932 C11.6834175,15.9023689 12.3165825,15.9023689 12.7071068,16.2928932 C13.0976311,16.6834175 13.0976311,17.3165825 12.7071068,17.7071068 L12.7071068,17.7071068 L8.70710678,21.7071068 L8.62544899,21.7803112 C8.62256244,21.7826279 8.61966276,21.7849289 8.61702235,21.7870723 L8.61702235,21.7870723 L8.5951593,21.8036865 C8.57113069,21.8215099 8.54627495,21.8382813 8.52070875,21.8540045 C8.50861311,21.8613931 8.49639444,21.8685012 8.48427695,21.8751242 C8.46429395,21.8862061 8.4438914,21.8966234 8.42322155,21.9063266 L8.42322155,21.9063266 L8.37105852,21.928896 C8.3515792,21.9366843 8.33179768,21.9438775 8.31214252,21.9502619 C8.29685134,21.9552713 8.28146328,21.9599023 8.26583961,21.964279 C8.24443648,21.9701664 8.22274608,21.9753602 8.20072576,21.9797599 C8.18337526,21.9832978 8.16594901,21.9863719 8.14896122,21.9889807 L8.14896122,21.9889807 L8.08,21.996 L8.028,21.999 L8,22 L8.02,21.999 L8.028,21.999 L8.041,21.998 L8.02,21.999 L8.01836205,21.9998325 L8,22 C7.99353854,22 7.98709139,21.9999387 7.9806455,21.9998139 C7.95731895,21.9993651 7.93400511,21.998105 7.91019815,21.9960225 C7.89030507,21.994252 7.87057956,21.991899 7.85153313,21.9889822 C7.83405099,21.9863719 7.81662474,21.9832978 7.7992059,21.9798348 C7.77725392,21.9753602 7.75556352,21.9701664 7.73400703,21.9641549 C7.71853672,21.9599023 7.70314866,21.9552713 7.68826359,21.9504533 C7.66820232,21.9438775 7.6484208,21.9366843 7.62866398,21.9287745 L7.62866398,21.9287745 L7.57690085,21.9063462 C7.5561086,21.8966234 7.53570605,21.8862061 7.5159379,21.8753288 L7.5159379,21.8753288 L7.47933981,21.8539326 C7.45372505,21.8382813 7.42886931,21.8215099 7.40469339,21.8036654 L7.40469339,21.8036654 L7.375,21.78 L7.378,21.783 L7.37455101,21.7803112 L7.359,21.767 L7.34743396,21.757792 L7.34743396,21.757792 L7.29289322,21.7071068 L3.29289322,17.7071068 C2.90236893,17.3165825 2.90236893,16.6834175 3.29289322,16.2928932 C3.68341751,15.9023689 4.31658249,15.9023689 4.70710678,16.2928932 L4.70710678,16.2928932 L6.999,18.586 L7,10 C7,9.44771525 7.44771525,9 8,9 Z M15.999,3 L16.081,3.003 L16.1489612,3.01101934 L16.1489612,3.01101934 C16.165949,3.01362808 16.1833753,3.01670217 16.2007258,3.02024007 C16.2227461,3.0246398 16.2444365,3.02983363 16.2658396,3.03572097 C16.2814633,3.04009773 16.2968513,3.04472872 16.3121425,3.04973809 C16.3317977,3.05612249 16.3515792,3.06331574 16.3710585,3.07110396 L16.4232215,3.09367336 L16.4232215,3.09367336 C16.4438914,3.10337664 16.4642939,3.11379392 16.484277,3.12487577 C16.4963944,3.13149883 16.5086131,3.13860692 16.5207088,3.14599545 C16.546275,3.1617187 16.5711307,3.17849009 16.5951593,3.19631351 L16.6170223,3.21292769 L16.6170223,3.21292769 C16.6196628,3.21507113 16.6225624,3.2173721 16.625449,3.21968877 L16.7071068,3.29289322 L20.7071068,7.29289322 C21.0976311,7.68341751 21.0976311,8.31658249 20.7071068,8.70710678 C20.3165825,9.09763107 19.6834175,9.09763107 19.2928932,8.70710678 L16.999,6.414 L17,15 C17,15.5522847 16.5522847,16 16,16 C15.4477153,16 15,15.5522847 15,15 L14.999,6.414 L12.7071068,8.70710678 C12.3165825,9.09763107 11.6834175,9.09763107 11.2928932,8.70710678 C10.9023689,8.31658249 10.9023689,7.68341751 11.2928932,7.29289322 L15.2928932,3.29289322 L15.37,3.224 L15.4046934,3.19633458 L15.4046934,3.19633458 C15.4288693,3.17849009 15.453725,3.1617187 15.4793398,3.14606743 L15.5159379,3.12467117 L15.5159379,3.12467117 C15.5357061,3.11379392 15.5561086,3.10337664 15.5769009,3.09365378 L15.628664,3.07122549 L15.628664,3.07122549 C15.6484208,3.06331574 15.6682023,3.05612249 15.6882636,3.04954668 C15.7031487,3.04472872 15.7185367,3.04009773 15.734007,3.03584514 C15.7555635,3.02983363 15.7772539,3.0246398 15.7992059,3.02016515 C15.8166247,3.01670217 15.834051,3.01362808 15.8515331,3.0110178 C15.8705796,3.00810098 15.8903051,3.00574796 15.9101982,3.00397748 C15.9340051,3.00189498 15.957319,3.00063489 15.9806455,3.00018615 L15.999,3 Z" id="Combined-Shape" fill="#404040" fill-rule="nonzero"></path>
    </g>
</svg>

<svg viewBox="0 0 24 24" xmlns="http://www.w3.org/2000/svg" fill="currentColor" focusable="false">
  <path d="M8 9a1 1 0 011 1l-.001 8.586 2.294-2.293a1 1 0 011.414 1.414l-4 4-.082.073-.008.007-.022.017a1.035 1.035 0 01-.172.102l-.052.023a.95.95 0 01-.222.06l-.069.007-.052.003L8 22l.02-.001h.008l.013-.001-.021.001h-.002L8 22a1 1 0 01-.371-.071l-.052-.023-.061-.03-.037-.022a1.03 1.03 0 01-.074-.05l-.03-.024.003.003-.003-.003-.016-.013-.012-.01-.054-.05-4-4a1 1 0 011.414-1.414L7 18.586V10a1 1 0 011-1zm7.999-6l.082.003.068.008a1.083 1.083 0 01.222.06l.052.023a1.018 1.018 0 01.172.102l.022.017.008.007.082.073 4 4a1 1 0 11-1.414 1.414l-2.294-2.293L17 15a1 1 0 01-2 0l-.001-8.586-2.292 2.293a1 1 0 01-1.414-1.414l4-4 .077-.069.035-.028a1.03 1.03 0 01.074-.05l.037-.021c.02-.011.04-.022.06-.031l.053-.023a.988.988 0 01.352-.07L15.999 3z" fill="none"/>
</svg>
